X: 21950
T: Kitty In The Lane
R: reel
M: 4/4
K: Dmixolydian
|:dcAB c2BA|GEE2 c2A/B/c|dcAB c2BA|GEcE EDD2|
dcAB c2BA|GEE2 cded|dcAB cded|cAGE EDD2:|
|:Adde fded|cdef g2e^c|Adde fded|eaag edd^c|
Adde fded|cdef g2e/f/g|afge fd^cd|eaag edd2:|

